src/svg/24/pen_outline_24.svg

<svg fill="none" height="24" viewBox="0 0 24 24" width="24" xmlns="http://www.w3.org/2000/svg"><path d="m15.3191 3.6317c.9955-.99552 2.5838-1.037 3.6287-.12444l.1331.12444 1.3638 1.36377c.9955.99551 1.037 2.58378.1244 3.62869l-.1244.13312-10.66224 10.66222c-.68785.6878-1.60324 1.0958-2.56924 1.1505l-.22374.0064h-1.64648c-.96697 0-1.76-.7447-1.83689-1.6919l-.00611-.1511v-1.6464c0-.9728.35886-1.9087 1.00327-2.6305l.15375-.1627zm-9.38933 11.9349c-.35843.3585-.57725.8304-.62145 1.3313l-.00832.1891v1.6464c0 .0158.00856.0296.0213.0371l.0217.0059h1.64648l.18903-.0083c.4383-.0387.85438-.2111 1.19165-.4936l.13955-.1278 8.26029-8.25975-2.58-2.58zm11.27023-10.914c-.1834 0-.3668.05831-.52.17492l-.0881.07697-1.1119 1.11189 2.58 2.58 1.1119-1.11189c.3079-.30786.3335-.79107.077-1.12816l-.077-.08807-1.3638-1.36377c-.1399-.13994-.3161-.22157-.4983-.24489z" fill="currentColor"/></svg>

<svg width="24" height="24" viewBox="0 0 24 24" fill="none" xmlns="http://www.w3.org/2000/svg">
<path d="M15.3191 3.6317C16.3146 2.63618 17.9029 2.5947 18.9478 3.50726L19.0809 3.6317L20.4447 4.99547C21.4402 5.99098 21.4817 7.57925 20.5691 8.62416L20.4447 8.75728L9.78246 19.4195C9.09461 20.1073 8.17922 20.5153 7.21322 20.57L6.98948 20.5764H5.343C4.37603 20.5764 3.583 19.8317 3.50611 18.8845L3.5 18.7334V17.087C3.5 16.1142 3.85886 15.1783 4.50327 14.4565L4.65702 14.2938L15.3191 3.6317ZM5.92977 15.5666C5.57134 15.9251 5.35252 16.397 5.30832 16.8979L5.3 17.087V18.7334C5.3 18.7492 5.30856 18.763 5.3213 18.7705L5.343 18.7764H6.98948L7.17851 18.7681C7.61681 18.7294 8.03289 18.557 8.37016 18.2745L8.50971 18.1467L16.77 9.88695L14.19 7.30695L5.92977 15.5666ZM17.2 4.6526C17.0166 4.6526 16.8332 4.71091 16.68 4.82752L16.5919 4.90449L15.48 6.01638L18.06 8.59638L19.1719 7.48449C19.4798 7.17663 19.5054 6.69342 19.2489 6.35633L19.1719 6.26826L17.8081 4.90449C17.6682 4.76455 17.492 4.68292 17.3098 4.6596L17.2 4.6526Z" fill="currentColor"/>
</svg>
